; generated by Slic3r 1.2.9 on 2017-12-17 at 15:20:56

; external perimeters extrusion width = 0.30mm
; perimeters extrusion width = 0.30mm
; infill extrusion width = 0.30mm
; solid infill extrusion width = 0.30mm
; top infill extrusion width = 0.30mm
; support material extrusion width = 0.30mm

M190 S115 ; set bed temperature
M104 S233 ; set temperature
G21        ;metric values
G90        ;absolute positioning
M82        ;set extruder to absolute mode
M107       ;start with the fan off
G28 X0 Y0  ;move X/Y to min endstops
G28 Z0     ;move Z to min endstops
G29          ; bed leveling
G1 Z15.0 F{travel_speed} ;move the platform down 15mm
G92 E0                  ;zero the extruded length
G1 F200 E3              ;extrude 3mm of feed stock
G92 E0                  ;zero the extruded length again
G1 F{travel_speed}
;Put printing message on LCD screen
M117 Printing...

M109 S233 ; wait for temperature to be reached
G21 ; set units to millimeters
G90 ; use absolute coordinates
M82 ; use absolute distances for extrusion
G92 E0 ; reset extrusion distance
G1 E-2.00000 F2400.00000 ; retract
G92 E0 ; reset extrusion distance
G1 Z0.100 F4500.000 ; lift Z
G1 Z0.200 F4500.000 ; move to next layer (0)
G1 Z0.300 F4500.000 ; lift Z
G1 X70.716 Y78.315 F4500.000 ; move to first brim point
G1 Z0.200 F4500.000 ; restore layer Z
G1 E2.00000 F2400.00000 ; unretract
G1 X70.716 Y67.754 E2.23644 F1080.000 ; brim
G1 X74.104 Y64.366 E2.34372 ; brim
G1 X119.462 Y64.366 E3.35920 ; brim
G1 X120.374 Y64.512 E3.37988 ; brim
G1 X121.998 Y65.048 E3.41816 ; brim
G1 X122.720 Y65.405 E3.43619 ; brim
G1 X124.085 Y66.332 E3.47313 ; brim
G1 X124.682 Y66.873 E3.49118 ; brim
G1 X125.740 Y68.140 E3.52812 ; brim
G1 X126.165 Y68.824 E3.54616 ; brim
G1 X126.834 Y70.333 E3.58311 ; brim
G1 X127.055 Y71.108 E3.60115 ; brim
G1 X127.256 Y72.543 E3.63359 ; brim
G1 X127.284 Y72.944 E3.64259 ; brim
G1 X127.284 Y94.246 E4.11950 ; brim
G1 X123.896 Y97.634 E4.22678 ; brim
G1 X109.315 Y97.634 E4.55322 ; brim
G1 X109.164 Y97.785 E4.55799 ; brim
G1 X109.164 Y100.061 E4.60894 ; brim
G1 X108.283 Y102.187 E4.66047 ; brim
G1 X105.717 Y104.754 E4.74173 ; brim
G1 X103.591 Y105.634 E4.79325 ; brim
G1 X89.289 Y105.634 E5.11343 ; brim
G1 X87.163 Y104.754 E5.16494 ; brim
G1 X84.596 Y102.187 E5.24622 ; brim
G1 X83.716 Y100.061 E5.29774 ; brim
G1 X83.716 Y97.785 E5.34869 ; brim
G1 X83.565 Y97.634 E5.35346 ; brim
G1 X68.349 Y97.634 E5.69411 ; brim
G1 X66.224 Y96.754 E5.74562 ; brim
G1 X63.596 Y94.127 E5.82880 ; brim
G1 X62.716 Y92.001 E5.88032 ; brim
G1 X62.716 Y84.099 E6.05721 ; brim
G1 X63.596 Y81.973 E6.10873 ; brim
G1 X66.224 Y79.346 E6.19192 ; brim
G1 X68.350 Y78.466 E6.24343 ; brim
G1 X70.565 Y78.466 E6.29303 ; brim
G1 X70.684 Y78.347 E6.29679 ; brim
G1 X70.973 Y78.572 F4500.000 ; move to first brim point
G1 X70.973 Y67.861 E6.53660 F1080.000 ; brim
G1 X74.211 Y64.623 E6.63912 ; brim
G1 X119.441 Y64.623 E7.65175 ; brim
G1 X120.313 Y64.763 E7.67151 ; brim
G1 X121.900 Y65.287 E7.70893 ; brim
G1 X122.591 Y65.627 E7.72616 ; brim
G1 X123.926 Y66.535 E7.76230 ; brim
G1 X124.496 Y67.052 E7.77954 ; brim
G1 X125.531 Y68.291 E7.81568 ; brim
G1 X125.937 Y68.945 E7.83292 ; brim
G1 X126.592 Y70.421 E7.86907 ; brim
G1 X126.803 Y71.161 E7.88631 ; brim
G1 X127.000 Y72.569 E7.91814 ; brim
G1 X127.027 Y72.953 E7.92675 ; brim
G1 X127.027 Y94.139 E8.40107 ; brim
G1 X123.789 Y97.377 E8.50359 ; brim
G1 X109.058 Y97.377 E8.83340 ; brim
G1 X108.907 Y97.528 E8.83817 ; brim
G1 X108.907 Y100.010 E8.89373 ; brim
G1 X108.065 Y102.041 E8.94296 ; brim
G1 X105.571 Y104.536 E9.02194 ; brim
G1 X103.539 Y105.377 E9.07117 ; brim
G1 X89.341 Y105.377 E9.38905 ; brim
G1 X87.309 Y104.536 E9.43828 ; brim
G1 X84.814 Y102.041 E9.51727 ; brim
G1 X83.973 Y100.009 E9.56650 ; brim
G1 X83.973 Y97.528 E9.62206 ; brim
G1 X83.822 Y97.377 E9.62683 ; brim
G1 X68.401 Y97.377 E9.97209 ; brim
G1 X66.369 Y96.536 E10.02131 ; brim
G1 X63.814 Y93.981 E10.10220 ; brim
G1 X62.973 Y91.949 E10.15143 ; brim
G1 X62.973 Y84.151 E10.32603 ; brim
G1 X63.814 Y82.119 E10.37526 ; brim
G1 X66.369 Y79.564 E10.45616 ; brim
G1 X68.401 Y78.723 E10.50538 ; brim
G1 X70.822 Y78.723 E10.55959 ; brim
G1 X70.941 Y78.604 E10.56336 ; brim
G1 X71.230 Y78.829 F4500.000 ; move to first brim point
G1 X71.230 Y67.967 E10.80654 F1080.000 ; brim
G1 X74.317 Y64.880 E10.90428 ; brim
G1 X119.421 Y64.880 E11.91407 ; brim
G1 X120.252 Y65.014 E11.93292 ; brim
G1 X121.803 Y65.525 E11.96947 ; brim
G1 X122.461 Y65.850 E11.98590 ; brim
G1 X123.766 Y66.737 E12.02124 ; brim
G1 X124.310 Y67.230 E12.03768 ; brim
G1 X125.322 Y68.442 E12.07302 ; brim
G1 X125.710 Y69.065 E12.08945 ; brim
G1 X126.350 Y70.509 E12.12480 ; brim
G1 X126.551 Y71.215 E12.14124 ; brim
G1 X126.745 Y72.596 E12.17247 ; brim
G1 X126.770 Y72.962 E12.18068 ; brim
G1 X126.770 Y94.033 E12.65242 ; brim
G1 X123.683 Y97.120 E12.75016 ; brim
G1 X108.801 Y97.120 E13.08334 ; brim
G1 X108.650 Y97.271 E13.08811 ; brim
G1 X108.650 Y99.958 E13.14829 ; brim
G1 X107.848 Y101.896 E13.19523 ; brim
G1 X105.425 Y104.318 E13.27192 ; brim
G1 X103.488 Y105.120 E13.31886 ; brim
G1 X89.392 Y105.120 E13.63445 ; brim
G1 X87.455 Y104.318 E13.68139 ; brim
G1 X85.032 Y101.895 E13.75809 ; brim
G1 X84.230 Y99.958 E13.80503 ; brim
G1 X84.230 Y97.271 E13.86520 ; brim
G1 X84.079 Y97.120 E13.86997 ; brim
G1 X68.452 Y97.120 E14.21984 ; brim
G1 X66.515 Y96.318 E14.26677 ; brim
G1 X64.032 Y93.835 E14.34538 ; brim
G1 X63.230 Y91.898 E14.39231 ; brim
G1 X63.230 Y84.202 E14.56463 ; brim
G1 X64.032 Y82.265 E14.61156 ; brim
G1 X66.515 Y79.782 E14.69017 ; brim
G1 X68.452 Y78.980 E14.73710 ; brim
G1 X71.079 Y78.980 E14.79593 ; brim
G1 X71.198 Y78.861 E14.79969 ; brim
G1 X71.487 Y79.086 F4500.000 ; move to first brim point
G1 X71.487 Y68.074 E15.04624 F1080.000 ; brim
G1 X74.424 Y65.137 E15.13922 ; brim
G1 X119.400 Y65.137 E16.14616 ; brim
G1 X120.191 Y65.264 E16.16409 ; brim
G1 X121.705 Y65.764 E16.19978 ; brim
G1 X122.331 Y66.073 E16.21542 ; brim
G1 X123.607 Y66.940 E16.24995 ; brim
G1 X124.125 Y67.409 E16.26559 ; brim
G1 X125.113 Y68.593 E16.30012 ; brim
G1 X125.482 Y69.186 E16.31576 ; brim
G1 X126.107 Y70.596 E16.35030 ; brim
G1 X126.299 Y71.268 E16.36594 ; brim
G1 X126.489 Y72.623 E16.39657 ; brim
G1 X126.513 Y72.971 E16.40437 ; brim
G1 X126.513 Y93.926 E16.87353 ; brim
G1 X123.576 Y96.863 E16.96651 ; brim
G1 X108.544 Y96.863 E17.30306 ; brim
G1 X108.393 Y97.014 E17.30783 ; brim
G1 X108.393 Y99.907 E17.37261 ; brim
G1 X107.630 Y101.750 E17.41727 ; brim
G1 X105.280 Y104.100 E17.49167 ; brim
G1 X103.437 Y104.863 E17.53632 ; brim
G1 X89.443 Y104.863 E17.84962 ; brim
G1 X87.600 Y104.100 E17.89427 ; brim
G1 X85.250 Y101.750 E17.96868 ; brim
G1 X84.487 Y99.907 E18.01333 ; brim
G1 X84.487 Y97.014 E18.07811 ; brim
G1 X84.336 Y96.863 E18.08288 ; brim
G1 X68.503 Y96.863 E18.43736 ; brim
G1 X66.660 Y96.100 E18.48201 ; brim
G1 X64.250 Y93.690 E18.55832 ; brim
G1 X63.487 Y91.847 E18.60297 ; brim
G1 X63.487 Y84.253 E18.77299 ; brim
G1 X64.250 Y82.410 E18.81764 ; brim
G1 X66.661 Y80.000 E18.89395 ; brim
G1 X68.503 Y79.237 E18.93860 ; brim
G1 X71.336 Y79.237 E19.00203 ; brim
G1 X71.455 Y79.118 E19.00579 ; brim
G1 X71.744 Y79.343 F4500.000 ; move to first brim point
G1 X71.744 Y68.180 E19.25572 F1080.000 ; brim
G1 X74.530 Y65.394 E19.34393 ; brim
G1 X119.380 Y65.394 E20.34803 ; brim
G1 X120.130 Y65.515 E20.36504 ; brim
G1 X121.607 Y66.002 E20.39987 ; brim
G1 X122.202 Y66.295 E20.41470 ; brim
G1 X123.448 Y67.142 E20.44843 ; brim
G1 X123.939 Y67.587 E20.46327 ; brim
G1 X124.904 Y68.744 E20.49700 ; brim
G1 X125.254 Y69.307 E20.51183 ; brim
G1 X125.865 Y70.684 E20.54557 ; brim
G1 X126.047 Y71.321 E20.56041 ; brim
G1 X126.233 Y72.650 E20.59044 ; brim
G1 X126.256 Y72.980 E20.59784 ; brim
G1 X126.256 Y93.820 E21.06441 ; brim
G1 X123.470 Y96.606 E21.15262 ; brim
G1 X108.287 Y96.606 E21.49255 ; brim
G1 X108.136 Y96.757 E21.49732 ; brim
G1 X108.136 Y99.856 E21.56671 ; brim
G1 X107.412 Y101.604 E21.60908 ; brim
G1 X105.134 Y103.882 E21.68119 ; brim
G1 X103.386 Y104.606 E21.72355 ; brim
G1 X89.494 Y104.606 E22.03456 ; brim
G1 X87.746 Y103.882 E22.07692 ; brim
G1 X85.468 Y101.604 E22.14904 ; brim
G1 X84.744 Y99.856 E22.19140 ; brim
G1 X84.744 Y96.757 E22.26079 ; brim
G1 X84.593 Y96.606 E22.26556 ; brim
G1 X68.554 Y96.606 E22.62465 ; brim
G1 X66.806 Y95.882 E22.66701 ; brim
G1 X64.468 Y93.544 E22.74103 ; brim
G1 X63.744 Y91.796 E22.78339 ; brim
G1 X63.744 Y84.304 E22.95112 ; brim
G1 X64.468 Y82.556 E22.99348 ; brim
G1 X66.806 Y80.218 E23.06751 ; brim
G1 X68.554 Y79.494 E23.10986 ; brim
G1 X71.593 Y79.494 E23.17791 ; brim
G1 X71.712 Y79.375 E23.18167 ; brim
G1 X72.001 Y79.601 F4500.000 ; move to first brim point
G1 X72.001 Y68.286 E23.43497 F1080.000 ; brim
G1 X74.637 Y65.651 E23.51841 ; brim
G1 X119.359 Y65.651 E24.51966 ; brim
G1 X120.069 Y65.765 E24.53575 ; brim
G1 X121.510 Y66.241 E24.56972 ; brim
G1 X122.072 Y66.518 E24.58375 ; brim
G1 X123.288 Y67.345 E24.61668 ; brim
G1 X123.753 Y67.766 E24.63072 ; brim
G1 X124.695 Y68.895 E24.66365 ; brim
G1 X125.026 Y69.427 E24.67768 ; brim
G1 X125.623 Y70.772 E24.71062 ; brim
G1 X125.795 Y71.375 E24.72465 ; brim
G1 X125.977 Y72.677 E24.75408 ; brim
G1 X125.999 Y72.989 E24.76108 ; brim
G1 X125.999 Y93.713 E25.22507 ; brim
G1 X123.363 Y96.349 E25.30851 ; brim
G1 X108.029 Y96.349 E25.65181 ; brim
G1 X107.879 Y96.499 E25.65658 ; brim
G1 X107.879 Y99.805 E25.73058 ; brim
G1 X107.194 Y101.459 E25.77066 ; brim
G1 X104.988 Y103.664 E25.84048 ; brim
G1 X103.335 Y104.349 E25.88055 ; brim
G1 X89.545 Y104.349 E26.18927 ; brim
G1 X87.892 Y103.664 E26.22934 ; brim
G1 X85.686 Y101.458 E26.29917 ; brim
G1 X85.001 Y99.805 E26.33924 ; brim
G1 X85.001 Y96.499 E26.41325 ; brim
G1 X84.851 Y96.349 E26.41801 ; brim
G1 X68.605 Y96.349 E26.78171 ; brim
G1 X66.952 Y95.664 E26.82178 ; brim
G1 X64.686 Y93.398 E26.89352 ; brim
G1 X64.001 Y91.745 E26.93359 ; brim
G1 X64.001 Y84.355 E27.09903 ; brim
G1 X64.686 Y82.702 E27.13910 ; brim
G1 X66.952 Y80.436 E27.21083 ; brim
G1 X68.605 Y79.751 E27.25090 ; brim
G1 X71.851 Y79.751 E27.32355 ; brim
G1 X71.969 Y79.632 E27.32732 ; brim
G1 X72.258 Y79.858 F4500.000 ; move to first brim point
G1 X72.258 Y68.393 E27.58399 F1080.000 ; brim
G1 X74.743 Y65.908 E27.66266 ; brim
G1 X119.339 Y65.908 E28.66107 ; brim
G1 X120.008 Y66.016 E28.67624 ; brim
G1 X121.412 Y66.479 E28.70935 ; brim
G1 X121.942 Y66.741 E28.72258 ; brim
G1 X123.129 Y67.547 E28.75470 ; brim
G1 X123.567 Y67.944 E28.76794 ; brim
G1 X124.487 Y69.046 E28.80007 ; brim
G1 X124.799 Y69.548 E28.81330 ; brim
G1 X125.380 Y70.860 E28.84543 ; brim
G1 X125.543 Y71.428 E28.85866 ; brim
G1 X125.721 Y72.703 E28.88749 ; brim
G1 X125.742 Y72.998 E28.89409 ; brim
G1 X125.742 Y93.607 E29.35550 ; brim
G1 X123.257 Y96.092 E29.43417 ; brim
G1 X107.772 Y96.092 E29.78084 ; brim
G1 X107.622 Y96.242 E29.78561 ; brim
G1 X107.622 Y99.754 E29.86422 ; brim
G1 X106.976 Y101.313 E29.90201 ; brim
G1 X104.843 Y103.446 E29.96954 ; brim
G1 X103.284 Y104.092 E30.00732 ; brim
G1 X89.596 Y104.092 E30.31376 ; brim
G1 X88.037 Y103.446 E30.35154 ; brim
G1 X85.904 Y101.313 E30.41908 ; brim
G1 X85.258 Y99.754 E30.45686 ; brim
G1 X85.258 Y96.242 E30.53547 ; brim
G1 X85.108 Y96.092 E30.54024 ; brim
G1 X68.656 Y96.092 E30.90855 ; brim
G1 X67.097 Y95.446 E30.94633 ; brim
G1 X64.904 Y93.253 E31.01577 ; brim
G1 X64.258 Y91.694 E31.05355 ; brim
G1 X64.258 Y84.406 E31.21670 ; brim
G1 X64.904 Y82.847 E31.25448 ; brim
G1 X67.097 Y80.654 E31.32393 ; brim
G1 X68.656 Y80.008 E31.36170 ; brim
G1 X72.108 Y80.008 E31.43897 ; brim
G1 X72.226 Y79.889 E31.44273 ; brim
G1 X72.515 Y80.115 F4500.000 ; move to first brim point
G1 X72.515 Y68.499 E31.70277 F1080.000 ; brim
G1 X74.849 Y66.165 E31.77668 ; brim
G1 X119.318 Y66.165 E32.77225 ; brim
G1 X119.947 Y66.266 E32.78650 ; brim
G1 X121.315 Y66.718 E32.81874 ; brim
G1 X121.812 Y66.963 E32.83117 ; brim
G1 X122.970 Y67.750 E32.86250 ; brim
G1 X123.381 Y68.123 E32.87493 ; brim
G1 X124.278 Y69.197 E32.90626 ; brim
G1 X124.571 Y69.668 E32.91868 ; brim
G1 X125.138 Y70.948 E32.95002 ; brim
G1 X125.291 Y71.482 E32.96245 ; brim
G1 X125.465 Y72.730 E32.99067 ; brim
G1 X125.485 Y73.007 E32.99687 ; brim
G1 X125.485 Y93.501 E33.45569 ; brim
G1 X123.151 Y95.835 E33.52960 ; brim
G1 X107.515 Y95.835 E33.87964 ; brim
G1 X107.365 Y95.985 E33.88441 ; brim
G1 X107.365 Y99.703 E33.96763 ; brim
G1 X106.758 Y101.167 E34.00313 ; brim
G1 X104.697 Y103.228 E34.06837 ; brim
G1 X103.233 Y103.835 E34.10386 ; brim
G1 X89.647 Y103.835 E34.40801 ; brim
G1 X88.183 Y103.228 E34.44350 ; brim
G1 X86.122 Y101.167 E34.50875 ; brim
G1 X85.515 Y99.703 E34.54424 ; brim
G1 X85.515 Y95.985 E34.62746 ; brim
G1 X85.365 Y95.835 E34.63223 ; brim
G1 X68.707 Y95.835 E35.00515 ; brim
G1 X67.243 Y95.228 E35.04064 ; brim
G1 X65.122 Y93.107 E35.10780 ; brim
G1 X64.515 Y91.643 E35.14329 ; brim
G1 X64.515 Y84.457 E35.30415 ; brim
G1 X65.122 Y82.993 E35.33964 ; brim
G1 X67.243 Y80.872 E35.40680 ; brim
G1 X68.707 Y80.265 E35.44228 ; brim
G1 X72.365 Y80.265 E35.52416 ; brim
G1 X72.483 Y80.147 E35.52792 ; brim
G1 X72.772 Y80.372 F4500.000 ; move to first brim point
G1 X72.772 Y68.606 E35.79133 F1080.000 ; brim
G1 X74.956 Y66.422 E35.86047 ; brim
G1 X119.298 Y66.422 E36.85319 ; brim
G1 X119.886 Y66.517 E36.86653 ; brim
G1 X121.217 Y66.956 E36.89791 ; brim
G1 X121.683 Y67.186 E36.90954 ; brim
G1 X122.810 Y67.952 E36.94006 ; brim
G1 X123.195 Y68.301 E36.95169 ; brim
G1 X124.069 Y69.348 E36.98222 ; brim
G1 X124.343 Y69.789 E36.99384 ; brim
G1 X124.896 Y71.036 E37.02437 ; brim
G1 X125.039 Y71.535 E37.03600 ; brim
G1 X125.210 Y72.757 E37.06362 ; brim
G1 X125.228 Y73.015 E37.06943 ; brim
G1 X125.228 Y93.394 E37.52566 ; brim
G1 X123.044 Y95.578 E37.59480 ; brim
G1 X107.258 Y95.578 E37.94821 ; brim
G1 X107.108 Y95.728 E37.95298 ; brim
G1 X107.108 Y99.652 E38.04082 ; brim
G1 X106.540 Y101.022 E38.07402 ; brim
G1 X104.552 Y103.010 E38.13698 ; brim
G1 X103.181 Y103.578 E38.17018 ; brim
G1 X89.699 Y103.578 E38.47203 ; brim
G1 X88.328 Y103.010 E38.50523 ; brim
G1 X86.340 Y101.022 E38.56819 ; brim
G1 X85.772 Y99.651 E38.60140 ; brim
G1 X85.772 Y95.728 E38.68923 ; brim
G1 X85.622 Y95.578 E38.69400 ; brim
G1 X68.759 Y95.578 E39.07153 ; brim
G1 X67.389 Y95.010 E39.10473 ; brim
G1 X65.340 Y92.962 E39.16959 ; brim
G1 X64.772 Y91.591 E39.20279 ; brim
G1 X64.772 Y84.509 E39.36137 ; brim
G1 X65.340 Y83.138 E39.39457 ; brim
G1 X67.389 Y81.090 E39.45943 ; brim
G1 X68.759 Y80.522 E39.49263 ; brim
G1 X72.622 Y80.522 E39.57912 ; brim
G1 X72.741 Y80.404 E39.58288 ; brim
G1 X73.029 Y80.629 F4500.000 ; move to first brim point
G1 X73.029 Y68.712 E39.84966 F1080.000 ; brim
G1 X75.062 Y66.679 E39.91403 ; brim
G1 X119.277 Y66.679 E40.90391 ; brim
G1 X119.825 Y66.767 E40.91632 ; brim
G1 X121.119 Y67.195 E40.94685 ; brim
G1 X121.553 Y67.409 E40.95767 ; brim
G1 X122.651 Y68.155 E40.98740 ; brim
G1 X123.009 Y68.480 E40.99822 ; brim
G1 X123.860 Y69.499 E41.02795 ; brim
G1 X124.115 Y69.909 E41.03877 ; brim
G1 X124.654 Y71.123 E41.06850 ; brim
G1 X124.786 Y71.588 E41.07933 ; brim
G1 X124.954 Y72.784 E41.10635 ; brim
G1 X124.971 Y73.024 E41.11175 ; brim
G1 X124.971 Y93.288 E41.56540 ; brim
G1 X122.938 Y95.321 E41.62977 ; brim
G1 X107.001 Y95.321 E41.98655 ; brim
G1 X106.851 Y95.471 E41.99132 ; brim
G1 X106.851 Y99.600 E42.08377 ; brim
G1 X106.322 Y100.876 E42.11468 ; brim
G1 X104.406 Y102.792 E42.17535 ; brim
G1 X103.130 Y103.321 E42.20626 ; brim
G1 X89.750 Y103.321 E42.50583 ; brim
G1 X88.474 Y102.792 E42.53674 ; brim
G1 X86.558 Y100.876 E42.59741 ; brim
G1 X86.029 Y99.600 E42.62832 ; brim
G1 X86.029 Y95.471 E42.72076 ; brim
G1 X85.879 Y95.321 E42.72553 ; brim
G1 X68.810 Y95.321 E43.10768 ; brim
G1 X67.534 Y94.792 E43.13859 ; brim
G1 X65.558 Y92.816 E43.20116 ; brim
G1 X65.029 Y91.540 E43.23207 ; brim
G1 X65.029 Y84.560 E43.38835 ; brim
G1 X65.558 Y83.284 E43.41926 ; brim
G1 X67.534 Y81.308 E43.48184 ; brim
G1 X68.810 Y80.779 E43.51275 ; brim
G1 X72.879 Y80.779 E43.60385 ; brim
G1 X72.998 Y80.661 E43.60761 ; brim
G1 X73.287 Y80.886 F4500.000 ; move to first brim point
G1 X73.287 Y80.019 E43.62702 F1080.000 ; brim
G1 X73.349 Y79.956 E43.62900 ; brim
